images/dist/icons/email-white.svg

<svg width="24" height="24" viewBox="0 0 24 24" fill="none" xmlns="http://www.w3.org/2000/svg">
<path d="M23.0625 13.6641C23.5803 13.6641 24 13.2443 24 12.7266V6.58594C24 4.51819 22.3177 2.83594 20.25 2.83594H3.75C1.68225 2.83594 0 4.51819 0 6.58594V17.4141C0 19.4818 1.68225 21.1641 3.75 21.1641H20.25C22.3177 21.1641 24 19.4818 24 17.4141C24 16.8963 23.5803 16.4766 23.0625 16.4766C22.5447 16.4766 22.125 16.8963 22.125 17.4141C22.125 18.4479 21.2839 19.2891 20.25 19.2891H3.75C2.71613 19.2891 1.875 18.4479 1.875 17.4141V6.78459L10.0198 11.8492C10.6305 12.2289 11.3153 12.4188 12 12.4188C12.6847 12.4188 13.3695 12.2289 13.9802 11.8492L22.125 6.78459V12.7266C22.125 13.2443 22.5447 13.6641 23.0625 13.6641ZM12.9901 10.2569C12.3794 10.6366 11.6206 10.6367 11.0099 10.2569L2.6573 5.06306C2.96517 4.84153 3.34261 4.71094 3.75 4.71094H20.25C20.6574 4.71094 21.0348 4.84158 21.3427 5.06311L12.9901 10.2569Z" fill="white"/>
</svg>

<svg width="24" height="24" fill="none" xmlns="http://www.w3.org/2000/svg"><path d="M23.063 13.664c.517 0 .937-.42.937-.937V6.586a3.754 3.754 0 00-3.75-3.75H3.75A3.754 3.754 0 000 6.586v10.828a3.754 3.754 0 003.75 3.75h16.5a3.754 3.754 0 003.75-3.75.937.937 0 10-1.875 0 1.877 1.877 0 01-1.875 1.875H3.75a1.877 1.877 0 01-1.875-1.875V6.784l8.145 5.065c.61.38 1.295.57 1.98.57s1.37-.19 1.98-.57l8.145-5.064v5.942c0 .517.42.937.938.937zM12.99 10.257c-.61.38-1.37.38-1.98 0L2.657 5.063a1.865 1.865 0 011.093-.352h16.5c.407 0 .785.13 1.093.352l-8.353 5.194z" fill="#fff"/></svg>
